!!!OTL: HIER SITZ ICH AUF ROSEN MIT VEILCHEN BEKRAENZT
!!!ARE: Europa, Mitteleuropa, Deutschland
!!!SCT: B0307
!!!YEM: Copyright 1995, estate of Helmut Schaffrath.
**kern
*ICvox
*Ivox
*M6/8
*k[f#c#g#]
*A:
{8e
=1
8.a
16g#
8a
8b
8a
8b
=2
8.cc#
16dd
8cc#
4b
8b
=3
8.cc#
16dd
8cc#
4b}
{16a
16cc#
=4
8ee
8ee
8ee
8.ee
16dd
8cc#
=5
8dd
8dd
8dd
8dd
8cc#
8b}
=6
{8.cc#
16dd
8ee
8ee
8dd
8cc#
=7
8.b
16a
8b
4a}
{16a
16cc#
=8
8ee
8ee
8ee
8.ee
16dd
8cc#
=9
8dd
8dd
8dd
8dd
8cc#
8b}
=10
{8.cc#
16dd
8ee
8ee
8dd
8cc#
=11
8.b
16a
8b
4a}
==
!!!AGN: Geselligkeits -, Trink - Lied, Freude
!!!ONB: ESAC (Essen Associative Code) Database: BOEHME
!!!AMT: compound duple
!!!AIN: vox
!!!EED: Helmut Schaffrath
!!!EEV: 1.0
*-
